!!!!SEGMENT: pl-wnifc--13846--108_anonim--piesni-polskie-i-ruskie-ludu-galicyjskiego-108-pojichaw-mytyj.krn
!!!cenid: 18xx:3330
!!!COM: Anonim
!!!COM-rismID: pe30004985
!!!CDT:
!!!CNT:
!!!GTL: Pieśni polskie i ruskie ludu galicyjskiego
!!!OTL: 108. Pojichaw mytyj
!!!PDT: 1833
!!!AGN:
!!!SMS-siglum: PL-Wnifc
!!!SMS-shelfmark: 13846
!!!SMS-shelfwork: 108 G
!!!SMS-variant:
!!!SMS-altvar:
!!!NIFC-rismSourceID: 1001036701
!!!NIFC-rismChildID: 1001039228
!!!NIFC-islandoraID: nifc:210326
!!!URL-pdf-islandora: https://repozytorium.nifc.pl/islandora/object/nifc%3A210326/datastream/PDF/view
!!!URL-scan:
!!!ONB-nifc:
!!!AIN: 2 piano 1 vox
!!!key: g
!!!OMD: Andante cantabile
**kern	**kern	**dynam	**kern	**text
*part3	*part2	*part2	*part1	*part1
*staff3	*staff2	*	*staff1	*staff1
*I"FORTEPIAN.	*I"FORTEPIAN.	*	*I"GŁOS.	*
*Ipiano	*Ipiano	*	*Ivox	*
*ICklav	*ICklav	*	*ICvox	*
*IGacmp	*IGacmp	*	*IGsolo	*
*>[A,B,B]	*>[A,B,B]	*>[A,B,B]	*>[A,B,B]	*>[A,B,B]
*>A	*>A	*>A	*>A	*>A
*clefF4	*clefG2	*	*clefG2	*
*k[b-e-]	*k[b-e-]	*	*k[b-e-]	*
*g:	*g:	*	*g:	*
*M2/4	*M2/4	*	*M2/4	*
=1	=1	=1	=1	=1
*^	*	*	*	*
!LO:TX:t=P:problem=mixed beam	!	!	!	!LO:TX:a:t=E.133.	!
!LO:N:vis=2	!	!	!	!	!
8GGG/L	2GGG\	4dd 4b- 4g 4d/	.	4dd\	Po-
8G\	.	.	.	.	.
.	.	(32qqg/LLL	.	.	.
.	.	32qqb-/	.	.	.
.	.	32qqdd/JJJ)	>	.	.
(8d 8B-\	.	8.gg\L	.	8.gg\	-ji-
8B-J 8G\)	.	.	]	.	.
.	.	16dd\Jk	.	16dd\	-chaw
*v	*v	*	*	*	*
=2	=2	=2	=2	=2
(8dL 8B- 8G\	[4dd 4b-\	.	[4dd\	my-
8D\)	.	.	.	.
(8d 8F#X\	(16dd]LL 16b-\	.	(16dd\LL]	-ty-
.	16cc 16a\	.	16cc\	.
8D\J)	16b- 16g\)	.	16b-\JJ)	.
.	16aJJ 16f#X\|	.	16a/	-j,
!!LO:LB:g=original
=3	=3	=3	=3	=3
(8dL 8G\	16b-KL 16g\|	.	16b-\	zo-
.	8.b-J 8.g^<\|	.	8.b-\	-sta-
8D\J)	.	.	.	.
8GGL 8GGG/	(8.ddL 8.b-\	>	(8.dd\L	-ły
8BB-J 8BBB-/	.	.	.	.
.	32ccLL 32a\	.	32cc\LL	sia
.	32b-JJJ 32g\)	]	32b-\JJJ)	.
=4	=4	=4	=4	=4
16DD/|	8.b-L 8.g/	.	(8.b-/L	tu-
!	!	!LO:HP:b=2	!	!
(16D\LL	.	<	.	.
!	!	!LO:HP:b=2	!	!
16E-\	.	[ >	.	.
16C#X\JJ)	16aJk 16f#X/	]	16a/Jk)	.
(16D/LL	8a 8f#/	.	8a/	-hy,
16Cn/	.	.	.	.
16BB-/	8r	.	8r	.
16AA/JJ)	.	.	.	.
!!LO:LB:g=original
=5	=5	=5	=5	=5
*^	*	*	*	*
*8va	*	*	*	*	*
!LO:TX:t=P:problem=mixed beam	!	!	!	!	!
!LO:N:vis=2	!	!	!	!	!
8G/L	2G\	4dd 4b- 4g 4d/	.	4dd\	myl-
8g\	.	.	.	.	.
.	.	(32qqg/LLL	.	.	.
.	.	32qqb-/	.	.	.
.	.	32qqdd/JJJ)	.	.	.
8dd 8b-\	.	8.gg\L	.	8.gg\	-szyj
8g\J	.	.	.	.	.
.	.	16dd\Jk	.	16dd\	nad
*X8va	*	*	*	*	*
*v	*v	*	*	*	*
=6	=6	=6	=6	=6
!LO:TX:a:t=loco	!	!	!	!
(8B-L 8G\	[4ddd [4bb- [4dd\	.	4dd\|	ne-
8D\J)	.	.	.	.
(8dL 8F#X\	16ddd]LL 16bb-] 16dd\]	.	((16dd\LL	.
.	16ccc 16cc\	.	16cc\	.
8D\J)	16bb- 16gg 16b-\	.	16b-\JJ)	.
.	16aaJJ 16ff#X 16a\|	.	16a/)	-ho
!!LO:LB:g=original
=7	=7	=7	=7	=7
(8dL 8G\	16bb-KL 16gg 16b-\	.	16b-\|	wże
.	8.bb-J 8.gg 8.b-\	.	8.b-^\	ne
8D\J)	.	.	.	.
!	!LO:N:vis=8..	!	!LO:N:vis=8..	!
(8B-L 8G\	(8.dddL 8.bb- 8.dd\	>	(8.dd\L	bu-
8D\J)	.	.	.	.
.	32cccLL 32aa\	.	32cc\Jkk)	.
.	32bb-JJJ 32gg\)	]	32b-\|	-de
=8	=8	=8	=8	=8
*	*	*^	*	*
!LO:TX:t=P:problem=mixed beam	!	!	!LO:HP:b=2	!	!
(16DD/LL|<	(8.bb-L 8.gg 8.b-\	>	<	8.b-/L	dru-
16D\	.	.	[	.	.
!	!	!	!LO:HP:b=2	!	!
16E-\	.	.	>	.	.
16C#X\JJ)	16aaJk 16ff#X 16a\)	]	]	16a/Jk	.
(16D/LL	8aa 8ff# 8a\	.	.	8a/	-hy;
16D/	.	.	.	.	.
16AA/	8r	.	.	8r	.
16FF#X/JJ)	.	.	.	.	.
*	*	*v	*v	*	*
!!LO:PB:g=original
=9!|:	=9!|:	=9!|:	=9!|:	=9!|:
*>B	*>B	*>B	*>B	*>B
!LO:TX:t=P:problem=mixed beam	!	!	!	!
(16DD/LL	8.ddL 8.f#X 8.d\	.	(8.d/L	ja
16D\	.	.	.	.
16C#X\	.	.	.	.
16D\JJ)	16ff#XJk 16a 16f#\	.	16f#X/Jk)	.
(16E-^<\LL	8aaL 8ff# 8a\	.	8a/L	o
16D\)	.	.	.	.
(16E-^<\	8aaJ 8ff# 8a\	.	8a/J	nym
16D\JJ)	.	.	.	.
=10	=10	=10	=10	=10
16F#X\LL	8.dddL 8.bb- 8.dd\	.	(8.dd\L	myś-
16D\	.	.	.	.
16d 16A 16F#\	.	.	.	.
16D\JJ	16cccJk 16aa 16cc\	.	16cc\Jk	.
16dLL 16B- 16G\	8bb-L 8gg 8b-\	.	8b-\)	.
16D\	.	.	.	.
16d 16c 16A\	8aaJ 8ff#X 8a\	.	8a/	-lu
16D\JJ	.	.	.	.
!!LO:LB:g=original
=11	=11	=11	=11	=11
16dLL 16B- 16G\	4bb- 4gg 4b-\	.	4b-\	i
16D\	.	.	.	.
16d 16B- 16G\	.	.	.	.
16D\JJ	.	.	.	.
!	!LO:N:vis=8..	!	!LO:N:vis=8..	!
(16dLL 16F#X\	(8.dddL 8.bb- 8.dd\	>	8.dd\L|	ne
16DJJ\)	.	.	.	.
(16dLL 16G\	.	.	.	.
16D\JJ)	32cccLL 32aa\	.	32cc\Jkk	.
.	32bb-JJJ 32gg\)	]	32b-\|	za-
=12	=12	=12	=12	=12
16d 16D\	8.bb-L 8.gg\	.	(8.b-/L	-bu-
(16EE-/LL	.	>	.	.
16DD/	.	.	.	.
16CC#X/JJ)	16aaJk 16ff#X\	]	16a/Jk)	.
(16DD/LL	8aa 8ff#\	.	8a/	-du,
16EE-/	.	.	.	.
16CCn/	8r	.	8r	.
16AAA/JJ)	.	.	.	.
!!LO:LB:g=original
=13	=13	=13	=13	=13
*8va	*	*	*	*
!LO:TX:t=P:problem=mixed beam	!	!	!	!
16GG/LL|	4dd 4b- 4g 4d\	.	4dd\	bo
(16g\	.	.	.	.
16dd 16b-\	.	.	.	.
16g\JJ)	.	.	.	.
(16ddLL 16b-\	8.ggL 8.g\	.	8.gg\	je-
16g\)	.	.	.	.
(16dd 16b-\	.	.	.	.
16g\JJ)	16ddJk 16d\	.	16dd\	-ho
*X8va	*	*	*	*
=14	=14	=14	=14	=14
!LO:TX:t=loco	!	!	!	!
16dLL 16B- 16G\	(8.dddL 8.dd\	.	(8.dd\L	lub-
(16D\	.	.	.	.
16d 16A 16F#X\	.	.	.	.
16D\JJ)	16cccJk 16cc\	.	16cc\Jk	.
(16B-LL 16G\	16bb-LL 16b-\	.	16b-\LL	.
16D\	16aa 16a\	.	16a\	.
16c 16A\	16gg 16g\	.	16g\JJ)	.
16D\JJ)	16ff#XJJ 16f#X\)	.	16f#X/|	-lu
!!LO:LB:g=original
=15	=15	=15	=15	=15
(16dLL 16B-\	(16ggLL 16g\	.	(16g/LL	i
16D\)	16aa 16a\	.	16a/	.
(16B- 16G\	16bb- 16b-\)	.	16b-/JJ)	.
16D\JJ)	16cccJJ 16cc\	.	16cc\	lu-
(16ALL 16F#X\	8.dddL 8.dd\	.	8.dd\	-by-
16D\)	.	.	.	.
(16c 16A\	.	.	.	.
16D\JJ)	16ff#XJk 16f#X\	.	16f#X/	-ty
=16	=16	=16	=16	=16
!LO:TX:t=P:problem=mixed beam	!	!	!	!
(16GG/LL	4gg 4g\	.	4g/	bu-
16G\	.	.	.	.
16B-\	.	.	.	.
16d\JJ)	.	.	.	.
8B- 8G\	8gg 8g\	.	8g/	-du.
8r	8r	.	8r	.
=:|!	=:|!	=:|!	=:|!	=:|!
*-	*-	*-	*-	*-
!!!system-decoration: s1{(s2,s3)}
!!!RDF**kern: < = below
!!!RDF**kern: | = vertical stroke
!!!ENC: Anastazja Marusiak
!!!END: 2021-11-10
!!!ENC: Marta Lawrence
!!!END: 2021-11-11
!!!YEC: Copyright 2022 Narodowy Instytut Fryderyka Chopina (https://polishscores.org)
!!!YEM: License CC-BY-4.0 (https://creativecommons.org/licenses/by/4.0)
